!!!OTL: 464. Der Juengling am Bache. / a. Neuere Volksweise.
!!!COM: Volksweise
!!!ARE: Europa, Mitteleuropa, Deutschland; France, Elsass
!!!SCT: B0464
!!!TXL: @@DE
!!!YEM: Copyright 1995, estate of Helmut Schaffrath.
**kern	**text
*ICvox	*
*Ivox	*
*clefG2	*
*M3/4	*
*k[f#c#g#]	*
*A:	*
{8e	An
8e	der
=1	=1
4.cc#	Quel-
8b	-le
8.cc#	ſaß
16b	der
=2	=2
4a	Kna-
4e}	-be,
{8g#	Blu-
8a	-men
=3	=3
4.b	wand
8a	er
8b	ſich
8cc#	ʒum
=4	=4
2a}	Kranʒ,
{8e	und
8e	er
=5	=5
4.cc#	ſah
8b	ſie
8.cc#	fort-
16b	-ge-
=6	=6
4a	-riſ-
4e}	-ſen,
{8g#	trei-
8a	-ben
=7	=7
4.b	in
8a	der
8b	Wel-
8cc#	-len
=8	=8
2a}	Tanʒ.
{8cc#	Und
8cc#	ſo
=9	=9
4.cc#	flie-
8b	-hen
8a	mei-
8g#	-ne
=10	=10
4f#	Ta-
4f#}	-ge,
{8cc#	wie
8cc#	die
=11	=11
8cc#	Quel-
8dd	-le,
4ee	raſt-
4cc#	-los
=12	=12
2b}	hin!
{8g#	Und
8f#	ſo
=13	=13
4.e	blei-
8g#	-chet
8b	mei-
8dd	-ne
=14	=14
4ff#	Ju-
4ee}	-gend,
{8cc#	wie
8ee	die
=15	=15
4.ee	Krän-
8dd	-ʒe
8b	ſchnell
8cc#	ver-
=16	=16
2a}	-blühn!
{8g#	Und
8f#	ſo
=17	=17
4.e	blei-
8g#	-chet
8b	mei-
8dd	-ne
=18	=18
4ff#	Ju-
4ee}	-gend,
{8cc#	wie
8ee	die
=19	=19
4.ee	Krän-
8dd	-ʒe
8b	ſchnell
8cc#	ver-
=20	=20
2a}	-blühn!
==	==
!!!AGN: Liebes - Lied, Leid, Klage, Sehnsucht
!!!GTL: Liebeslieder - Liebesleid
!!!ONB: ESAC (Essen Associative Code) Database: BOEHME
!!!AMT: simple triple
!!!AIN: vox
!!!EED: Helmut Schaffrath
!!!EEV: 1.0
!!Aus dem Elſaß. Nach der Mel. von Proch.
!!@@COMMENT:"Gedicht von Fr. von Schiller. 1803. Dieֵ¿es Lied iֵ¿t gar vielfach componirt worden: von
!!W. Ehlers (1804), F. L. Seidel (1805), Reichardt (1810), Abeille (1820), Dan ’i, Fr. Nohr, H. Proch c. 1840) u. A."
!!@@END:
!!!Text: F. Schiller
!!!URL-scan: https://archive.org/details/BoehmeVtLieder1895/page/n373/mode/2up
!!!ENC: Anna Maria Matuszewska
!!!EEV: 2024/09/07
*-	*-
